public/svg/about-us/bag.svg

<svg width="33" height="46" viewBox="0 0 33 46" fill="none" xmlns="http://www.w3.org/2000/svg">
<path d="M32 1H1V45.0526H32V14.0526" stroke="white" stroke-width="1.5"/>
<path d="M8.18019 17.9676L4.26323 20.9029L11.1122 30.0425M11.6063 18.4585L24.815 36.0848L24.3242 39.5109L20.8981 39.0201L7.68935 21.3938L11.6063 18.4585Z" stroke="white" stroke-width="1.5"/>
<path d="M28.7369 5.0791H7.52637" stroke="white" stroke-width="1.5"/>
<path d="M28.7373 11.6055L22.2109 11.6055" stroke="white" stroke-width="1.5"/>
<path d="M28.7373 18.1313L22.2109 18.1313" stroke="white" stroke-width="1.5"/>
<path d="M28.7373 21.3945L22.2109 21.3945" stroke="white" stroke-width="1.5"/>
<path d="M28.7373 24.6577L22.2109 24.6577" stroke="white" stroke-width="1.5"/>
<path d="M28.7373 27.9209L22.2109 27.9209" stroke="white" stroke-width="1.5"/>
<path d="M28.7373 31.1841L22.2109 31.1841" stroke="white" stroke-width="1.5"/>
</svg>

<svg width="33" height="46" fill="none" xmlns="http://www.w3.org/2000/svg"><path d="M32 1H1v44.053h31v-31" stroke="#fff" stroke-width="1.5"/><path d="M8.18 17.968l-3.917 2.935 6.85 9.14m.493-11.584l13.209 17.626-.49 3.426-3.427-.49L7.69 21.393l3.917-2.935zM28.737 5.08H7.527m21.21 6.525h-6.526m6.526 6.526h-6.526m6.526 3.264h-6.526m6.526 3.263h-6.526m6.526 3.262h-6.526m6.526 3.264h-6.526" stroke="#fff" stroke-width="1.5"/></svg>
